X: 10744
M: C
L: 1/16
K: G
c4 d2c2 B4 c2B2 | A2G2 A2B2 Hd4 e3d |\
dB3 A3B A2G2 E3E | E7 (G/F/ E4) B2c2 |
d2B2 d2e2 d4 c3B | d2B2 A2B2 d6 cB |\
e2^d2 e2f2 e2=d2 B2^d2 | e7 (g/f/ e4) e2=d2 |\
c2c2 (d2c2) B2B2 (c2B2) | A2G2 A2Bd He6 e2 |\
dB3 (A2B2) (A2G2) E3E | E7 (G/F/ E4) |]



